papirus/16x16/apps/cs-desktop.svg

<?xml version="1.0" encoding="UTF-8" standalone="no"?>
<!-- Created with Inkscape (http://www.inkscape.org/) -->

<svg
   xmlns:dc="http://purl.org/dc/elements/1.1/"
   xmlns:cc="http://creativecommons.org/ns#"
   xmlns:rdf="http://www.w3.org/1999/02/22-rdf-syntax-ns#"
   xmlns:svg="http://www.w3.org/2000/svg"
   xmlns="http://www.w3.org/2000/svg"
   xmlns:sodipodi="http://sodipodi.sourceforge.net/DTD/sodipodi-0.dtd"
   xmlns:inkscape="http://www.inkscape.org/namespaces/inkscape"
   id="svg4222"
   height="16"
   width="16"
   version="1.1"
   viewBox="0 0 16 16"
   inkscape:version="0.91 r13725"
   sodipodi:docname="cs-desktop.svg">
  <defs
     id="defs12" />
  <sodipodi:namedview
     pagecolor="#ffffff"
     bordercolor="#666666"
     borderopacity="1"
     objecttolerance="10"
     gridtolerance="10"
     guidetolerance="10"
     inkscape:pageopacity="0"
     inkscape:pageshadow="2"
     inkscape:window-width="1600"
     inkscape:window-height="847"
     id="namedview10"
     showgrid="false"
     showguides="false"
     inkscape:zoom="31.62"
     inkscape:cx="9.6877251"
     inkscape:cy="7.144845"
     inkscape:window-x="0"
     inkscape:window-y="0"
     inkscape:window-maximized="1"
     inkscape:current-layer="svg4222" />
  <metadata
     id="metadata4227">
    <rdf:RDF>
      <cc:Work
         rdf:about="">
        <dc:format>image/svg+xml</dc:format>
        <dc:type
           rdf:resource="http://purl.org/dc/dcmitype/StillImage" />
        <dc:title></dc:title>
      </cc:Work>
    </rdf:RDF>
  </metadata>
  <path
     style="fill:#4ab3e4"
     inkscape:connector-curvature="0"
     d="m 4e-8,2.512 0,11.66648 c 0,0.43092 0.3568,0.777784 0.8,0.777784 l 14.39999996,0 c 0.4432,0 0.8,-0.346864 0.8,-0.777784 L 16,2.512 Z"
     id="rect4203" />
  <path
     style="fill:#4d4d4d"
     inkscape:connector-curvature="0"
     d="m 0.80000004,1 c -0.4432,0 -0.8,0.346864 -0.8,0.777784 L 4e-8,3 16,3 16,1.777784 C 16,1.346864 15.6432,1 15.2,1 Z"
     id="rect3328"
     sodipodi:nodetypes="ssccsss" />
  <path
     style="fill:#4d4d4d"
     inkscape:connector-curvature="0"
     d="m 3.9999999,13 c -0.5540001,0 -1,0.446 -1,1 l 0,1 L 13,15 13,14 c 0,-0.554 -0.446001,-1 -1.000001,-1 L 4,13 Z"
     id="rect4155" />
</svg>

<?xml version="1.0" encoding="UTF-8" standalone="no"?>
<svg id="svg4222" xmlns:rdf="http://www.w3.org/1999/02/22-rdf-syntax-ns#" xmlns="http://www.w3.org/2000/svg" height="16" width="16" version="1.1" xmlns:cc="http://creativecommons.org/ns#" viewBox="0 0 16 16" xmlns:dc="http://purl.org/dc/elements/1.1/">
 <metadata id="metadata4227">
  <rdf:RDF>
   <cc:Work rdf:about="">
    <dc:format>image/svg+xml</dc:format>
    <dc:type rdf:resource="http://purl.org/dc/dcmitype/StillImage"/>
    <dc:title/>
   </cc:Work>
  </rdf:RDF>
 </metadata>
 <path id="rect4203" fill="#4ab3e4" d="m4e-8 2.512v11.666c0 0.43092 0.3568 0.77778 0.8 0.77778h14.4c0.4432 0 0.8-0.34686 0.8-0.77778v-11.666z"/>
 <path id="rect3328" fill="#4d4d4d" d="m0.8 1c-0.4432 0-0.8 0.34686-0.8 0.77778l4e-8 1.2222h16v-1.2222c0-0.4309-0.357-0.7778-0.8-0.7778z"/>
 <path id="rect4155" fill="#4d4d4d" d="m4 13c-0.554 0-1 0.446-1 1v1h10v-1c0-0.554-0.446-1-1-1h-8z"/>
</svg>
